assets/open-source.e1ba34a6.svg

<svg viewBox="0 0 283 283" fill="none" xmlns="http://www.w3.org/2000/svg"><path d="M141.5 0C63.48 0 0 63.48 0 141.5c0 58.21 36.49 111.219 90.772 131.896a8.888 8.888 0 009.838-2.503 8.901 8.901 0 001.748-3.122l26.531-84.723a8.85 8.85 0 00-4.157-10.383 35.699 35.699 0 01-13.561-13.04 35.704 35.704 0 01-5.046-18.125c0-19.509 15.866-35.375 35.375-35.375s35.375 15.866 35.375 35.375c0 12.894-7.128 24.833-18.607 31.183a8.811 8.811 0 00-4.157 10.383l26.531 84.723a8.888 8.888 0 008.052 6.182 8.871 8.871 0 003.534-.558C246.528 252.719 283 199.71 283 141.5 283 63.48 219.52 0 141.5 0z" fill="#54C6F9"/></svg>

<svg width="283" height="283" viewBox="0 0 283 283" fill="none" xmlns="http://www.w3.org/2000/svg">
<path d="M141.5 0C63.4804 0 0 63.4804 0 141.5C0 199.71 36.4893 252.719 90.7722 273.396C91.9001 273.819 93.1024 274.009 94.3059 273.953C95.5094 273.898 96.689 273.598 97.7728 273.071C98.8566 272.545 99.822 271.804 100.61 270.893C101.398 269.981 101.993 268.919 102.358 267.771L128.889 183.048C129.498 181.103 129.417 179.008 128.66 177.116C127.903 175.224 126.515 173.652 124.732 172.665C119.127 169.609 114.444 165.106 111.171 159.625C107.899 154.143 106.156 147.884 106.125 141.5C106.125 121.991 121.991 106.125 141.5 106.125C161.009 106.125 176.875 121.991 176.875 141.5C176.875 154.394 169.747 166.333 158.268 172.683C156.48 173.665 155.088 175.237 154.33 177.13C153.572 179.024 153.495 181.121 154.111 183.066L180.642 267.789C181.007 268.937 181.602 269.999 182.39 270.91C183.178 271.822 184.143 272.563 185.227 273.089C186.311 273.615 187.491 273.915 188.694 273.971C189.898 274.027 191.1 273.837 192.228 273.413C246.528 252.719 283 199.71 283 141.5C283 63.4804 219.52 0 141.5 0Z" fill="#54C6F9"/>
</svg>
